X:189
T: IN MORGENROTH GEKLEIDET
N: B0224
O: Europa, Mitteleuropa, Deutschland
R: Tageszeiten - Lied, Morgen
M: 6/8
L: 1/16
K: Bb
F2 | B4B2c4c2 | d4c2B4
A2 | G4A2B4c2 | F8z2
A2 | B4A2c4B2 | e6d4
c2 | B3cB2A2G2A2 | B8z2

